!!!COM: Palestrina, Giovanni Perluigi da
!!!OPR: Missa Ave Maria (1594)
!!!OMD: Sanctus
!!!OTL: Hosanna
**kern	**kern	**kern	**kern
*Ibass	*Itenor	*Icalto	*Icant
!Bassus	!Tenor	!Altus	!Cantus
*clefF4	*clefGv2	*clefG2	*clefG2
*k[]	*k[]	*k[]	*k[]
*A:aeo	*A:aeo	*A:aeo	*A:aeo
*M4/2	*M4/2	*M4/2	*M4/2
=54	=54	=54	=54
1G	1B	0g	1dd
2G	2B	.	2dd
2G	2B	.	2dd
=55	=55	=55	=55
4C	2c	1g	2ee
4D	.	.	.
4E	4G	.	2ee
4F	4A	.	.
4G	4B	1g	1dd
4A	4c	.	.
2B-	2d	.	.
=56	=56	=56	=56
2A	2e	2a	1cc
2F	2f	2a	.
2G	1d	1g	2r
2G	.	.	2b
=57	=57	=57	=57
2A	1r	1f	2cc
2B	.	.	2dd
2.c	1e	2r	2.ee
.	.	2g	.
4B	.	.	4dd
=58	=58	=58	=58
2A	2f	2a	2cc
2G	2g	2b	2b
[1F	2.a	2.cc	4a
.	.	.	4g
.	.	.	4f
.	4g	4b	4g
=59	=59	=59	=59
2F]	2f	2a	4a
.	.	.	4b
2C	2e	2g	2cc
2r	2d	2f	2b
2C	2c	2e	[2a
=60	=60	=60	=60
2D	1B	2f	2a]
2E	.	4e	2g#
.	.	4d	.
2.F	2A	2c	[1a
.	2c	[2f	.
4E	.	.	.
=61	=61	=61	=61
2D	2d	2f]	0a]
2C#	2e	2e	.
4D	[1f	1d	.
4E	.	.	.
4F	.	.	.
4G	.	.	.
=62	=62	=62	=62
4A	2f]	1c	2r
4B	.	.	.
1c	2e	.	2g
.	1d	1r	2a
2B	.	.	2b
=63	=63	=63	=63
2.A	2c	2r	2.cc
.	2e	2c	.
4G	.	.	4b
2F	2f	2d	2a
2E	2g	2e	2g
=64	=64	=64	=64
1D	2.a	2.f	4f
.	.	.	4g
.	.	.	4a
.	4g	4g	4b
1r	2f	2a	1cc
.	2e	2A	.
=65	=65	=65	=65
1r	2d	2B	2b
.	2c	2c	1a
2r	1B	2d	.
2E	.	2e	2g
=66	=66	=66	=66
2F	1r	1d	2a
2G	.	.	4g
.	.	.	4f
2.A	2r	2c	1e
.	2c	2e	.
4G	.	.	.
=67	=67	=67	=67
2F	2d	2f	2r
2E	2e	2g	2cc
2D	2f	2a	2dd
2C	2g	2cc	2ee
=68	=68	=68	=68
1F	2.a	2cc	2.ff
.	.	2c	.
.	4g	.	4ee
1r	2f	2r	2dd
.	2e	2c	2cc
=69	=69	=69	=69
2r	2d	2d	2b
2C	2c	2e	1a
2D	1B	2f	.
2E	.	4e	2g#
.	.	4d	.
=70	=70	=70	=70
2.F	2A	2c	[0a
.	2c	1f	.
4E	.	.	.
2D	2d	.	.
2C#	2e	2e	.
=71	=71	=71	=71
0D	2.f	2.d	1a_
.	4e	4e	.
.	1d	1f	1a_
=72	=72	=72	=72
0A	0c#	0e	0a]
==	==	==	==
*-	*-	*-	*-
!!!CDT: 1525/^1526/-1594/2/2
!!!OCY: Italia
!!!AGN: Mass (Paraphrase)
!!!AST: renaissance, vocal
!!!ASW: Prayer
!!!PWK: Masses, Book 7
!!!RNB: Cadence finals: D
!!!YOR: Le Opere Complete, v. 23, p. 1
!!!YOO: Rome, Italy: Fratelli Scalera
!!!END: 1992//
!!!EED: John Miller
!!!YEC: Copyright 2000, John Miller
!!!YEN: United States of America
!!!YEM: Rights to all derivative electronic formats reserved.
!!!YEM: Refer to licensing agreement for further details.
!!!YEM: This file must be accompanied by the licensing agreement.
!!!YEM: A copy of the licensing agreement may be found at http://www.music-cog.ohio-state.edu/HumdrumDatabases/Palestrina/license.txt
!!!EMD: converted to Humdrum by Bret Aarden
